X:1
T:Mickie Ainsworth  "(c) Rob MacNeil Collection"
M:C|
L:1/8
Q:80
C:Ronnie Cooper
S:Hornpipe
K:HP
|: {g}d/2B/2 | \
{g}A{d}B/2{g}A/2{d}G/2{g}A/2d/2{g}c/2d/2 | \
{gBd}B{G}B/2A/2{g}B/2d/2{gcd}c/2B/2 |
{g}A/2B/2{g}d/2e/2{g}f/2e/2{g}d/2f/2 | \
{gef}e{g}A{GAG}A{g}d/2B/2 | \
{g}A{d}B/2{g}A/2{d}G/2{g}A/2d/2{g}c/2d/2 |
{g}B/2g/2{f}g/2f/2{a}g/2B/2{g}d/2g/2 | \
{a}f/2A/2{g}d/2f/2{g}e/2A/2{g}c/2e/2 | \
{Gdc}d{gde}d/2c/2{g}d ::
{g}c/2d/2 | \
{g}e/2a/2g/2a/2e/2g/2{a}f/2e/2 | \
{Gdc}d{g}f/2d/2a/2d/2{g}f/2d/2 |
g/2f/2{g}e/2g/2{a}f/2e/2{g}d/2f/2 | \
{g}e/2f/2{g}e/2d/2{gBd}B{g}d/2B/2 | \
{g}A{d}B/2{g}A/2{d}G/2{g}A/2d/2{g}c/2d/2 |
{g}B/2g/2{f}g/2f/2{a}g/2B/2{g}d/2g/2 | \
{a}f/2A/2{g}d/2f/2{g}e/2A/2{g}c/2e/2 | \
{Gdc}d{gde}d/2c/2{g}d :|
